src/icons/IconRUO/IconRUO_size_m.svg

<svg width="24" height="24" viewBox="0 0 24 24" fill="none" xmlns="http://www.w3.org/2000/svg">
  <path
    d="M8.20495 1C7.65266 1 7.20495 1.44772 7.20495 2V3.14286C7.20495 3.69514 7.65266 4.14286 8.20495 4.14286H8.76995V10.4287L6.39503 14.2442L16.6205 12.9835L15.0302 10.4286L15.0301 4.14286H15.5951C16.1474 4.14286 16.5951 3.69514 16.5951 3.14286V2C16.5951 1.44772 16.1474 1 15.5951 1H8.20495Z"
    fill="black"
  />
  <path
    fill-rule="evenodd"
    clip-rule="evenodd"
    d="M17.5358 14.4539L5.32763 15.959L2.08659 21.1659C1.58904 21.9652 2.16382 23 3.10535 23H20.6949C21.6364 23 22.2112 21.9652 21.7136 21.1659L17.5358 14.4539ZM9 20C9 21.1046 8.10457 22 7 22C5.89543 22 5 21.1046 5 20C5 18.8954 5.89543 18 7 18C8.10457 18 9 18.8954 9 20ZM12.5 19C13.3284 19 14 18.3284 14 17.5C14 16.6716 13.3284 16 12.5 16C11.6716 16 11 16.6716 11 17.5C11 18.3284 11.6716 19 12.5 19ZM16 21C16 21.5523 15.5523 22 15 22C14.4477 22 14 21.5523 14 21C14 20.4477 14.4477 20 15 20C15.5523 20 16 20.4477 16 21ZM17 19C17.5523 19 18 18.5523 18 18C18 17.4477 17.5523 17 17 17C16.4477 17 16 17.4477 16 18C16 18.5523 16.4477 19 17 19Z"
    fill="black"
  />
</svg>

<svg viewBox="0 0 24 24" xmlns="http://www.w3.org/2000/svg">
  <path
    d="M8.205 1a1 1 0 00-1 1v1.143a1 1 0 001 1h.565v6.286l-2.375 3.815 10.226-1.26-1.59-2.555V4.143h.564a1 1 0 001-1V2a1 1 0 00-1-1h-7.39z"
  />
  <path
    fill-rule="evenodd"
    clip-rule="evenodd"
    d="M17.536 14.454L5.328 15.959l-3.241 5.207A1.2 1.2 0 003.105 23h17.59a1.2 1.2 0 001.019-1.834l-4.178-6.712zM9 20a2 2 0 11-4 0 2 2 0 014 0zm3.5-1a1.5 1.5 0 100-3 1.5 1.5 0 000 3zm3.5 2a1 1 0 11-2 0 1 1 0 012 0zm1-2a1 1 0 100-2 1 1 0 000 2z"
  />
</svg>
